archdroid-icon-theme/Archdroid-Grey/mimetypes/scalable/application-vnd.ms-powerpoint.svg

<svg fill="#9E9E9E" height="48" viewBox="0 0 48 48" width="48" xmlns="http://www.w3.org/2000/svg"><path d="m12 4c-2.21 0-3.980469 1.79-3.980469 4l-.019531 32c0 2.21 1.770469 4 3.980469 4h24.019531c2.21 0 4-1.79 4-4v-24l-12-12zm14 3 11 11h-11zm2.166016 18 7.5 10h-23.332032l5.832032-7.5 4.167968 5.007812z" fill="#dd5900"/></svg>

<svg fill="#9E9E9E" height="48" version="1.1" viewBox="0 0 48 48" width="48" xmlns="http://www.w3.org/2000/svg"><path d="M12 4C9.79 4 8.019531 5.79 8.019531 8L8 40C8 42.21 9.770469 44 11.980469 44L36 44C38.21 44 40 42.21 40 40L40 16 28 4 12 4zM26 7L37 18 26 18 26 7zM28.166016 25L35.666016 35 12.333984 35 18.166016 27.5 22.333984 32.507812 28.166016 25z" fill="#dd5900"/></svg>
